icons/image-add-fill.svg

<svg xmlns="http://www.w3.org/2000/svg" width="24" height="24" fill="none"><g clip-path="url(#a)"><g><path fill="#121212" d="M21 15V18H24V20H21V23H19V20H16V18H19V15H21ZM21.008 3C21.556 3 22 3.445 22 3.993V13.342C21.3576 13.1151 20.6813 12.9994 20 13V5H4L4.001 19L13.293 9.707C13.465 9.53448 13.694 9.43073 13.9371 9.41526C14.1802 9.39979 14.4206 9.47367 14.613 9.623L14.706 9.708L18.252 13.258C17.4766 13.4943 16.7572 13.8851 16.1369 14.407C15.5167 14.9288 15.0086 15.5709 14.6432 16.2944C14.2779 17.0179 14.0628 17.808 14.0111 18.6169C13.9593 19.4258 14.0719 20.2368 14.342 21.001L2.992 21C2.72881 20.9997 2.4765 20.895 2.29049 20.7088C2.10448 20.5226 2 20.2702 2 20.007V3.993C2.00183 3.73038 2.1069 3.47902 2.29251 3.29322C2.47813 3.10742 2.72938 3.00209 2.992 3H21.008ZM8 7C8.53043 7 9.03914 7.21071 9.41421 7.58579C9.78929 7.96086 10 8.46957 10 9C10 9.53043 9.78929 10.0391 9.41421 10.4142C9.03914 10.7893 8.53043 11 8 11C7.46957 11 6.96086 10.7893 6.58579 10.4142C6.21071 10.0391 6 9.53043 6 9C6 8.46957 6.21071 7.96086 6.58579 7.58579C6.96086 7.21071 7.46957 7 8 7Z"/></g></g><defs><clipPath id="a"><rect width="24" height="24" fill="white"/></clipPath></defs></svg>

<svg width="24" height="24" fill="none" xmlns="http://www.w3.org/2000/svg"><g clip-path="url(#a)"><path d="M21 15v3h3v2h-3v3h-2v-3h-3v-2h3v-3h2Zm.008-12c.548 0 .992.445.992.993v9.349A5.99 5.99 0 0 0 20 13V5H4l.001 14 9.292-9.293a1 1 0 0 1 1.32-.084l.093.085 3.546 3.55a6.003 6.003 0 0 0-3.91 7.743L2.992 21A.993.993 0 0 1 2 20.007V3.993A1 1 0 0 1 2.992 3h18.016ZM8 7a2 2 0 1 1 0 4 2 2 0 0 1 0-4Z" /></g><defs><clipPath id="a"><path fill="#fff" d="M0 0h24v24H0z"/></clipPath></defs></svg>
